X:1
T:James Gibb editions
T:Laetentur coeli - Hassler
T:#
%%score [ 1 2 3 4 ]
L:1/8
Q:1/4=88
M:2/2
K:C
V:1 treble nm="Soprano" snm="S"
V:2 treble nm="Alto" snm="A"
V:3 treble-8 nm="Tenor" snm="T"
V:4 bass nm="Bass" snm="B"
V:1
"^Laetentur coeli""^Hans Leo Hassler\n(1564-1612)" z8 | z ccA (B/G/ c2 B) | c2 GA B^c d2 | %3
w: |Lae- ten- tur coe\- * * *|li, et ex- ul- tet ter-|
[M:2/2] B2 z G GA _B2 | A2 GG EF D2 | ECCD EF G2 | E2 c2 cBAA | (G3 A/B/ c4) | B2 d2 c3 B | %9
w: ra, lae- ten- tur coe-|li, et ex- ul- tet ter-|ra: com- mo- ve- a- tur ma-|re, com- mo- ve- a- tur|ma\- * * *|re, et ple- ni-|
 AA (G3 ^F/E/ F2) | G2 z G GA (G/F/G/A/ | G2 GB Bc (B/A/B/c/ | B2) BG A>A G2 | F2 E2 D3 D | %14
w: tu- do e\- * * *|jus, gau- de- bunt cam\- * * *|* pi, gau- de- bunt cam\- * * *|* pi, et o- mni- a,|quae in e- is|
 ECGG A2 Gc- | cB A2 Bc d2 | c2 BG A2 B2 | c>c d2 B2 cB | A4 B4 | z8 | z2 B2 c>c B2 | A3 A B2 Bc | %22
w: sunt. Tunc ex- ul- ta- bunt o\-|* mni- a li- gna sil-|va- rum, sil- va- rum,|o- mni- a li- gna sil-|va- rum||a fa- ci- e|Do- mi- ni, qui- a|
 d3/2c/4B/4 A2) B4 | z8 ||[M:3/4][Q:1/4=132] G3 ^F G2 | A4 G2 | %26
w: ve\- * * * nit:||quo- ni- am|ve- nit|
[M:3/4][Q:1/4=132][Q:1/4=132][Q:1/4=132][Q:1/4=132] c3 c _B2 | _B2 A4 || %28
w: ju- di- ca-|re ter-|
[M:2/2][Q:1/4=88] A2 AA d2 c2 | BA ^G2 A4 | z8 | z A_BA c2 AA | %32
w: ­~ram. Ju- di- ca- bit|or- bem ter- rae,||in ae- qui- ta- te, in|
[M:2/2][Q:1/4=88][Q:1/4=88][Q:1/4=88][Q:1/4=88] GF E2 ^F4 | z2 G2 ^F>FFG | A2 G A2 B c2 | %35
w: ae- qui- ta- te:|et po- pu- los in|ve- ri- ta- te su-|
 B2 G4 c2- | cB (A3 G F2- | FE D4) G2 | G4 G4 | z2 G2 ^F3 F | ^F2 G2 A2 GA- | AB c2 B2 G2- | %42
w: a, in ve\-|* ri- ta\- * *|* * * te|su- a,|et po- pu-|los in ve- ri- ta\-|* te su- a, in|
 G2 c3 B (A2- |[Q:1/4=87] A[Q:1/4=86]G[Q:1/4=84] F3[Q:1/4=82] E[Q:1/4=81] D2- | %44
w: * ve- ri- ta\-||
[Q:1/4=79] D2)[Q:1/4=78] G2[Q:1/4=75] G4 |[Q:1/4=74] !fermata!G8 |] %46
w: * te su-|a.|
V:2
 z CEF (GF/E/ D2) | E2 z2 z4 | z2 E^F GG F2 |[M:2/2] G2 z D E F2 E | F2 ED CC B,2 | C2 C2 CDEF | %6
w: Lae- ten- tur coe\- * * *|li,|et ex- ul- tet ter-|ra, lae- ten- tur coe-|li, et ex- ul- tet ter-|ra: com- mo- ve- a- tur|
 G2 E4 F2 | EFGF E4 | D2 B,2 G3 G | F2 D2 D4 | D2 z D EF (E/D/E/F/ | E2 EG GA G2- | G2 GE F>F E2 | %13
w: ma- re, com-|mo- ve- a- tur ma-|re, et ple- ni-|tu- do e-|jus, gau- de- bunt cam\- * * *|* pi, gau- de- bunt cam\-|* pi, et o- mni- a,|
 D2 G2 A2 G2 | E4 z4 | z4 z CGG | A2 G G2 ^F G2 | A4 G2 GG- | G^F/E/ F2) G2 D2 | F>F E2 D3 D | %20
w: quae in e- is|sunt.|Tunc ex- ul-|ta- bunt o- mni- a|li- gna sil- va\-|* * * * rum a|fa- ci- e Do- mi-|
 E2 z ^G A>A =G2 | E2 ^F2 G2 GA | (B/A/ G2 ^F) G4 | z8 ||[M:3/4] D3 D D2 | F4 E2 |[M:3/4] G3 A F2 | %27
w: ni, a fa- ci- e|Do- mi- ni, qui- a|ve\- * * * nit:||quo- ni- am|ve- nit|ju- di- ca-|
 G2 E4 ||[M:2/2] ^F2 FF A2 G2 | FE D2 E2 EE | G2 F2 ED ^C2 | DDGF G2 FF |[M:2/2] ED ^C2 D4 | %33
w: re ter-|­~ram. Ju- di- ca- bit|or- bem ter- rae, Ju- di-|ca- bit or- bem ter-|rae in ae- qui- ta- te, in|ae- qui- ta- te:|
 z2 D2 D>DDE | F2 E F2 G2 ^F | G4 z2 G2 | c3 B (A3 G | F3 E D2) E2 | D4 E4 | z2 D2 D3 D | %40
w: et po- pu- los in|ve- ri- ta- te su-|a, in|ve- ri- ta\- *|* * * te|su- a,|et po- pu-|
 D2 E2 F2 EF- | F G2 ^F G4 | z2 G2 c3 B | (A3 G F3 E | D2) E2 D4 | !fermata!E8 |] %46
w: los in ve- ri- ta\-|* te su- a,|in ve- ri-|ta\- * * *|* te su-|a.|
V:3
 z8 | z cef (gf/e/ d2) | c2 ec de A2 |[M:2/2][K:treble-8] G2 z B cc (d/c/_B) | c2 cB AA G2 | %5
w: |Lae- ten- tur coe\- * * *|li, et ex- ul- tet ter-|ra, lae- ten- tur coe\- * *|li, et ex- ul- tet ter-|
 G4 c2 cd | ef g2 c2 c2 | cdef g4 | g2 g2 e3 e | c2 B2 A4 | B2 z G cA c2- | c2 cd df (d/c/d/e/ | %12
w: ra: com- mo- ve-|a- tur ma- re, com-|mo- ve- a- tur ma-|re, et ple- ni-|tu- do e-|jus,~jus, gau- de- bunt cam-|* pi, gau- de- bunt cam\- * * *|
 d2) dc c>c c2 | AA c4 B2 | c2 z G cd e2 | d g2 f ee (d>e | fed)e c2 d2 | f>f f2 e2 ed | %18
w: * pi, et o- mni- a,|quae in e- is|sunt. Tunc ex- ul- ta-|bunt o- mni- a li- gna *|* * * sil- va- rum,|o- mni- a li- gna sil-|
 d4 d2 z B | c>c B2 A3 A | B2 z e A>A B2 | c2 d2 G4 | z4 z2 Bc | (d3/2c/4B/4 A2) B4 || %24
w: va- rum a|fa- ci- e Do- mi-|ni, a fa- ci- e|Do- mi- ni,|qui- a|ve\- * * * nit:|
[M:3/4] B3 A B2 | c4 c2 |[M:3/4][K:treble-8] e3 f d2 | d4 ^c2 ||[M:2/2] d2 dd f2 e2 | %29
w: quo- ni- am|ve- nit|ju- di- ca-|re ter-|ram. Ju- di- ca- bit|
 dc B2 A2 ^cc | d2 c2 _BA G2 | Afdf e2 fc |[M:2/2][K:treble-8] _BA A2 A4 | z2 =B2 A>AAc | %34
w: or- bem ter- rae, Ju~Ju- di~di-|ca- bit or- bem ter-|rae in ae- qui- ta- te, in|ae- qui- ta- te:|et po- pu- los in|
 c2 c c2 e c2 | d2 d2 e4- | e2 e2 A2 c2 | d2 A2 BG (c2- | c2 B2) c4 | z2 B2 A3 A | A2 c2 c2 cc- | %41
w: ve- ri- ta- te su-|a, et po\-|* pu- los in|ve- ri- ta- te su\-|* * a,|et po- pu-|los in ve- ri- ta\-|
 ce c2 d2 d2 | e6 e2 | A2 c2 (d2 A2 | BG c4 B2) | !fermata!c8 |] %46
w: * te su- a, in|ve- ri-|ta- te su\- *||a.|
V:4
 C2 CA, (B,/G,/ C2 B,) | C2 z2 z4 | z2 CA, G,E, D,2 |[M:2/2] G,2 z G, CA, G,2 | F,2 CG, A,F, G,2 | %5
w: Lae- ten- tur coe\- * * *|li,|et ex- ul- tet ter-|ra, lae- ten- tur coe-|li, et ex- ul- tet ter-|
 C,8 | C2 CB, A,G, F,2 | C2 C,2 C,D,E,F, | G,2 G,G, C,3 E, | F,2 G,2 D,4 | G,4 z4 | %11
w: ra:|com- mo- ve- a- tur ma-|re, com- mo- ve- a- tur|ma- re, et ple- ni-|tu- do e-|jus,|
 z2 z G, G,F, G,2- | G,2 G,C, F,>F, C,2 | D,2 E,2 F,2 G,2 | C,4 z2 z C, | G,G, A,2 G, C2 B, | %16
w: gau- de- bunt cam\-|* pi, et o- mni- a,|quae in e- is|sunt. Tunc|ex- ul- ta- bunt o- mni-|
 A,A,B,C A,2 G,2 | F,>F, D,2 E,2 C,G, | D,4 G,2 z G, | A,>A, G,2 F,3 F, | E,4 z4 | z8 | %22
w: a li- gna sil- va- rum,|o- mni- a li- gna sil-|va- rum a|fa- ci- e Do- mi-|ni,||
 z4 z2 G,A, | (B,/A,/ G,2 ^F,) G,4 ||[M:3/4] G,3 D, G,2 | F,4 C,2 |[M:3/4] C3 A, _B,2 | G,2 A,4 || %28
w: qui- a|ve\- * * * nit:|quo- ni- am|ve- nit|ju- di- ca-|re ter-|
[M:2/2] D,4 z4 | z4 z2 A,A, | _B,2 A,2 G,F, E,2 | D,D_B,D C2 F,F, |[M:2/2] G,D, A,2 D,4 | %33
w: ram.|Ju- di-|ca- bit or- bem ter-|rae in ae- qui- ta- te, in|ae- qui- ta- te:|
 z2 G,2 D,>D,D,C, | F,2 C, F,2 E, A,2 | G,2 G,2 C3 B, | (A,3 G, F,3 E, | D,2) F,2 G,4- | G,4 C,4 | %39
w: et po- pu- los in|ve- ri- ta- te su-|a, in ve- ri-|ta\- * * *|* te su\-|* a,|
 z2 G,2 D,3 D, | D,2 C,2 F,2 C,F,- | F,E, A,2 G,2 G,2 | C3 B, (A,3 G, | F,3 E, D,2) F,2 | G,8 | %45
w: et po- pu-|los in ve- ri- ta\-|* te su- a, in|ve- ri- ta\- *|* * * te|su-|
 !fermata!C,8 |] %46
w: a.|

